assets/icons/logo-pride.svg

<svg viewBox="0 0 1534 531" fill="none" xmlns="http://www.w3.org/2000/svg"><path d="M341.98 352.067c-11.198 11.218-29.361 11.218-40.559 0-11.199-11.218-11.199-29.412 0-40.629 11.198-11.218 29.361-11.218 40.559 0 11.199 11.217 11.199 29.411 0 40.629Zm-61.168-61.274c-22.586 22.624-22.586 59.295 0 81.919 22.585 22.624 59.192 22.624 81.777 0 22.586-22.624 22.586-59.295 0-81.919-22.585-22.625-59.192-22.625-81.777 0Zm184.258 56.466v-.377c0-14.705-9.881-24.415-21.644-24.415-11.67 0-21.457 9.71-21.457 24.415v.377c0 14.706 9.693 24.416 21.457 24.416 11.763 0 21.644-9.521 21.644-24.416Zm-67.756-44.494h25.032v12.726c6.117-8.296 14.492-14.329 27.573-14.329 20.609 0 40.277 16.214 40.277 45.72v.377c0 29.601-19.292 45.721-40.277 45.721-13.363 0-21.644-6.128-27.573-13.198v37.99h-25.032V302.765Zm169.389 37.33c-1.505-11.218-8.093-18.854-18.633-18.854-10.351 0-17.127 7.448-19.103 18.854h37.736Zm-62.298 7.447v-.283c0-25.263 17.974-46.097 43.665-46.097 29.55 0 43.007 23.002 43.007 48.077 0 1.98-.189 4.336-.283 6.599h-61.545c2.447 11.406 10.352 17.345 21.55 17.345 8.376 0 14.493-2.639 21.457-9.05l14.304 12.727c-8.282 10.275-20.139 16.497-36.137 16.497-26.444 0-46.018-18.665-46.018-45.815Zm105.401-44.778h25.032v12.538c5.741-7.448 13.175-14.235 25.879-14.235 19.01 0 30.02 12.538 30.02 32.9v57.315h-25.032v-49.397c0-11.878-5.646-18.005-15.151-18.005-9.599 0-15.622 6.127-15.622 18.005v49.397h-25.126v-88.518Zm132.216-3.577h-35.101v-23.473h95.611v23.473h-35.101v92.195h-25.409v-92.195Zm118.102 40.912c-1.506-11.218-8.094-18.853-18.633-18.853-10.352 0-17.128 7.447-19.104 18.853h37.737Zm-62.299 7.447v-.282c0-25.264 17.975-46.098 43.666-46.098 29.549 0 43.006 23.002 43.006 48.077 0 1.98-.188 4.337-.377 6.599h-61.545c2.447 11.407 10.352 17.345 21.55 17.345 8.376 0 14.493-2.639 21.457-9.049l14.304 12.726c-8.282 10.275-20.139 16.497-36.137 16.497-26.349 0-45.924-18.665-45.924-45.815Zm131.56-76.737h-25.032v120.569h25.032V270.809Zm81.685 69.289c-1.51-11.218-8.1-18.853-18.635-18.853-10.352 0-17.127 7.447-19.103 18.853h37.738Zm-62.394 7.447v-.282c0-25.264 17.974-46.098 43.665-46.098 29.549 0 43.009 23.002 43.009 48.077 0 1.98-.19 4.337-.29 6.599h-61.54c2.446 11.406 10.351 17.345 21.55 17.345 8.38 0 14.49-2.639 21.46-9.049l14.3 12.726c-8.28 10.275-20.14 16.497-36.137 16.497-26.349 0-46.017-18.665-46.017-45.815Zm105.394-44.772h25.04v12.537c5.74-7.447 13.36-14.234 26.06-14.234 11.58 0 20.24 5.09 24.85 14.046 7.71-9.05 17.03-14.046 28.98-14.046 18.64 0 29.83 11.218 29.83 32.522v57.692h-25.03v-49.396c0-11.878-5.27-18.005-14.68-18.005s-15.15 6.127-15.15 18.005v49.396h-25.03v-49.396c0-11.878-5.27-18.005-14.68-18.005s-15.15 6.127-15.15 18.005v49.396h-25.04v-88.517Zm214.75 37.325c-1.5-11.218-8.09-18.853-18.63-18.853-10.35 0-17.13 7.447-19.1 18.853h37.73Zm-62.29 7.447v-.282c0-25.264 17.97-46.098 43.66-46.098 29.55 0 43.01 23.002 43.01 48.077 0 1.98-.19 4.337-.38 6.599h-61.54c2.44 11.406 10.35 17.345 21.55 17.345 8.37 0 14.49-2.639 21.45-9.049l14.31 12.726c-8.29 10.275-20.14 16.497-36.14 16.497-26.35 0-45.92-18.665-45.92-45.815Zm109.44 18.667v-41.949h-10.54V302.77h10.54v-22.625H1341v22.625h20.8v21.493H1341v37.801c0 5.751 2.45 8.579 8.09 8.579 4.62 0 8.76-1.131 12.43-3.111v20.173c-5.27 3.111-11.39 5.091-19.77 5.091-15.33 0-25.78-6.033-25.78-26.584Zm64.37-63.443h25.03v17.817c5.08-12.255 13.36-20.174 28.23-19.514v26.301h-1.32c-16.65 0-26.91 10.087-26.91 31.203v32.711h-25.03v-88.518Zm126.95 0h26.06l-33.97 90.686c-6.77 18.005-14.02 24.792-29.08 24.792-9.03 0-15.81-2.262-22.21-6.127l8.38-18.194c3.29 1.98 7.43 3.488 10.73 3.488 4.33 0 6.58-1.32 8.75-5.75l-34.63-88.895h26.54l20.13 60.332 19.3-60.332Z" fill="#fff"/><mask id="a" style="mask-type:alpha" maskUnits="userSpaceOnUse" x="0" y="0" width="531" height="531"><path d="M95.074 417.785c-6.285-6.332-16.557-6.332-22.889 0L34.99 455.027s-.093 0-.093.094l-10.272-10.272c-5.629-5.675-14.869-5.675-20.404 0-5.628 5.675-5.628 14.916 0 20.45l61.35 61.444c5.63 5.676 14.87 5.676 20.404 0 5.629-5.675 5.629-14.868 0-20.45l-10.272-10.272s.094 0 .094-.093l37.242-37.148c6.332-6.332 6.332-16.604 0-22.89l-18.058-18.105h.093ZM221.387 251.98c-6.754-6.801-17.683-6.801-24.484 0L95.543 353.433c-6.707 6.801-6.707 17.73 0 24.484l57.411 57.504c6.754 6.708 17.683 6.708 24.484 0l65.102-65.337c-13.742-28.564-11.303-62.992 7.505-89.352L221.34 251.98h.047ZM326.03 107.094c-6.989-6.989-18.434-6.989-25.516 0l-78.752 78.892c-6.989 6.989-6.989 18.574 0 25.563l48.639 48.639c34.334-24.812 82.551-21.67 113.508 9.24l39.352-39.399c7.036-6.989 7.036-18.574 0-25.563l-97.231-97.372Zm198.825 36.678L386.536 5.172c-6.848-6.896-18.246-6.896-25.235 0L325.936 40.63c-6.989 6.988-6.989 18.386 0 25.28l138.32 138.555c6.988 6.989 18.339 6.989 25.234 0l35.365-35.459c6.942-6.989 6.942-18.387 0-25.281" fill="#912626"/></mask><g mask="url(#a)"><path fill="#D50605" d="m-172.528-554.938 1628.46 1628.46-38.448 38.447-1628.46-1628.46z"/><path fill="#081A9A" d="m-326.317-401.149 1628.46 1628.46-38.448 38.447-1628.46-1628.46z"/><path fill="#75D7EF" d="m-480.106-247.36 1628.46 1628.46-38.448 38.447-1628.46-1628.46z"/><path fill="#010101" d="m-403.212-324.254 1628.46 1628.46-38.448 38.447-1628.46-1628.46z"/><path fill="#E5FE04" d="m-249.423-478.044 1628.46 1628.46-38.448 38.447-1628.46-1628.46z"/><path fill="#76008A" d="m-364.765-362.702 1628.46 1628.46-38.448 38.447-1628.46-1628.46z"/><path fill="#FBF9F5" d="m-557.001-170.465 1628.46 1628.46-38.448 38.447-1628.46-1628.46z"/><path fill="#5D390D" d="m-441.659-285.807 1628.46 1628.46-38.448 38.447-1628.46-1628.46z"/><path fill="#EF9E01" d="m-210.976-516.491 1628.46 1628.46-38.448 38.447-1628.46-1628.46z"/><path fill="#FEAFC7" d="m-518.554-208.913 1628.46 1628.46-38.448 38.447-1628.46-1628.46z"/><path fill="#0ABF02" d="m-287.87-439.596 1628.46 1628.46-38.448 38.447-1628.46-1628.46z"/></g></svg>

<svg viewBox="0 0 1534 531" fill="none" xmlns="http://www.w3.org/2000/svg">
<path d="M341.98 352.067C330.782 363.285 312.619 363.285 301.421 352.067C290.222 340.849 290.222 322.655 301.421 311.438C312.619 300.22 330.782 300.22 341.98 311.438C353.179 322.655 353.179 340.849 341.98 352.067ZM280.812 290.793C258.226 313.417 258.226 350.088 280.812 372.712C303.397 395.336 340.004 395.336 362.589 372.712C385.175 350.088 385.175 313.417 362.589 290.793C340.004 268.168 303.397 268.168 280.812 290.793Z" fill="white"/>
<path d="M465.07 347.259V346.882C465.07 332.177 455.189 322.467 443.426 322.467C431.756 322.467 421.969 332.177 421.969 346.882V347.259C421.969 361.965 431.662 371.675 443.426 371.675C455.189 371.675 465.07 362.154 465.07 347.259ZM397.314 302.765H422.346V315.491C428.463 307.195 436.838 301.162 449.919 301.162C470.528 301.162 490.196 317.376 490.196 346.882V347.259C490.196 376.86 470.904 392.98 449.919 392.98C436.556 392.98 428.275 386.852 422.346 379.782V417.772H397.314V302.765Z" fill="white"/>
<path d="M566.703 340.095C565.198 328.877 558.61 321.241 548.07 321.241C537.719 321.241 530.943 328.689 528.967 340.095H566.703ZM504.405 347.542V347.259C504.405 321.996 522.379 301.162 548.07 301.162C577.62 301.162 591.077 324.164 591.077 349.239C591.077 351.219 590.888 353.575 590.794 355.838H529.249C531.696 367.244 539.601 373.183 550.799 373.183C559.175 373.183 565.292 370.544 572.256 364.133L586.56 376.86C578.278 387.135 566.421 393.357 550.423 393.357C523.979 393.357 504.405 374.692 504.405 347.542Z" fill="white"/>
<path d="M609.806 302.764H634.838V315.302C640.579 307.854 648.013 301.067 660.717 301.067C679.727 301.067 690.737 313.605 690.737 333.967V391.282H665.705V341.885C665.705 330.007 660.059 323.88 650.554 323.88C640.955 323.88 634.932 330.007 634.932 341.885V391.282H609.806V302.764Z" fill="white"/>
<path d="M742.022 299.187H706.921V275.714H802.532V299.187H767.431V391.382H742.022V299.187Z" fill="white"/>
<path d="M860.124 340.099C858.618 328.881 852.03 321.246 841.491 321.246C831.139 321.246 824.363 328.693 822.387 340.099H860.124ZM797.825 347.546V347.264C797.825 322 815.8 301.166 841.491 301.166C871.04 301.166 884.497 324.168 884.497 349.243C884.497 351.223 884.309 353.58 884.12 355.842H822.575C825.022 367.249 832.927 373.187 844.125 373.187C852.501 373.187 858.618 370.548 865.582 364.138L879.886 376.864C871.604 387.139 859.747 393.361 843.749 393.361C817.4 393.361 797.825 374.696 797.825 347.546Z" fill="white"/>
<path d="M929.385 270.809H904.353V391.378H929.385V270.809Z" fill="white"/>
<path d="M1011.07 340.098C1009.56 328.88 1002.97 321.245 992.435 321.245C982.083 321.245 975.308 328.692 973.332 340.098H1011.07ZM948.676 347.545V347.263C948.676 321.999 966.65 301.165 992.341 301.165C1021.89 301.165 1035.35 324.167 1035.35 349.242C1035.35 351.222 1035.16 353.579 1035.06 355.841H973.52C975.966 367.247 983.871 373.186 995.07 373.186C1003.45 373.186 1009.56 370.547 1016.53 364.137L1030.83 376.863C1022.55 387.138 1010.69 393.36 994.693 393.36C968.344 393.36 948.676 374.695 948.676 347.545Z" fill="white"/>
<path d="M1054.07 302.773H1079.11V315.31C1084.85 307.863 1092.47 301.076 1105.17 301.076C1116.75 301.076 1125.41 306.166 1130.02 315.122C1137.73 306.072 1147.05 301.076 1159 301.076C1177.64 301.076 1188.83 312.294 1188.83 333.598V391.29H1163.8V341.894C1163.8 330.016 1158.53 323.889 1149.12 323.889C1139.71 323.889 1133.97 330.016 1133.97 341.894V391.29H1108.94V341.894C1108.94 330.016 1103.67 323.889 1094.26 323.889C1084.85 323.889 1079.11 330.016 1079.11 341.894V391.29H1054.07V302.773Z" fill="white"/>
<path d="M1268.82 340.098C1267.32 328.88 1260.73 321.245 1250.19 321.245C1239.84 321.245 1233.06 328.692 1231.09 340.098H1268.82ZM1206.53 347.545V347.263C1206.53 321.999 1224.5 301.165 1250.19 301.165C1279.74 301.165 1293.2 324.167 1293.2 349.242C1293.2 351.222 1293.01 353.579 1292.82 355.841H1231.28C1233.72 367.247 1241.63 373.186 1252.83 373.186C1261.2 373.186 1267.32 370.547 1274.28 364.137L1288.59 376.863C1280.3 387.138 1268.45 393.36 1252.45 393.36C1226.1 393.36 1206.53 374.695 1206.53 347.545Z" fill="white"/>
<path d="M1315.97 366.212V324.263H1305.43V302.77H1315.97V280.145H1341V302.77H1361.8V324.263H1341V362.064C1341 367.815 1343.45 370.643 1349.09 370.643C1353.71 370.643 1357.85 369.512 1361.52 367.532V387.705C1356.25 390.816 1350.13 392.796 1341.75 392.796C1326.42 392.796 1315.97 386.763 1315.97 366.212Z" fill="white"/>
<path d="M1380.34 302.769H1405.37V320.586C1410.45 308.331 1418.73 300.412 1433.6 301.072V327.373H1432.28C1415.63 327.373 1405.37 337.46 1405.37 358.576V391.287H1380.34V302.769Z" fill="white"/>
<path d="M1507.29 302.769H1533.35L1499.38 393.455C1492.61 411.46 1485.36 418.247 1470.3 418.247C1461.27 418.247 1454.49 415.985 1448.09 412.12L1456.47 393.926C1459.76 395.906 1463.9 397.414 1467.2 397.414C1471.53 397.414 1473.78 396.094 1475.95 391.664L1441.32 302.769H1467.86L1487.99 363.101L1507.29 302.769Z" fill="white"/>
<mask id="mask0_110_434" style="mask-type:alpha" maskUnits="userSpaceOnUse" x="0" y="0" width="531" height="531">
<path d="M95.0744 417.785C88.7892 411.453 78.5173 411.453 72.1852 417.785L34.9904 455.027C34.9904 455.027 34.8966 455.027 34.8966 455.121L24.6246 444.849C18.9961 439.174 9.75603 439.174 4.22136 444.849C-1.40712 450.524 -1.40712 459.765 4.22136 465.299L65.5718 526.743C71.2002 532.419 80.4403 532.419 85.975 526.743C91.6035 521.068 91.6035 511.875 85.975 506.293L75.703 496.021C75.703 496.021 75.7968 496.021 75.7968 495.928L113.039 458.78C119.371 452.448 119.371 442.176 113.039 435.89L94.9805 417.785H95.0744ZM221.387 251.98C214.633 245.179 203.704 245.179 196.903 251.98L95.5434 353.433C88.8361 360.234 88.8361 371.163 95.5434 377.917L152.954 435.421C159.708 442.129 170.637 442.129 177.438 435.421L242.54 370.084C228.798 341.52 231.237 307.092 250.045 280.732L221.34 251.98H221.387ZM326.03 107.094C319.041 100.105 307.596 100.105 300.514 107.094L221.762 185.986C214.773 192.975 214.773 204.56 221.762 211.549L270.401 260.188C304.735 235.376 352.952 238.518 383.909 269.428L423.261 230.029C430.297 223.04 430.297 211.455 423.261 204.466L326.03 107.094ZM524.855 143.772L386.536 5.17116C379.688 -1.72372 368.29 -1.72372 361.301 5.17116L325.936 40.6306C318.947 47.6193 318.947 59.0169 325.936 65.9118L464.256 204.466C471.244 211.455 482.595 211.455 489.49 204.466L524.855 169.007C531.797 162.018 531.797 150.62 524.855 143.726" fill="#912626"/>
</mask>
<g mask="url(#mask0_110_434)">
<rect x="-172.528" y="-554.938" width="2302.99" height="54.3727" transform="rotate(45 -172.528 -554.938)" fill="#D50605"/>
<rect x="-326.317" y="-401.149" width="2302.99" height="54.3727" transform="rotate(45 -326.317 -401.149)" fill="#081A9A"/>
<rect x="-480.106" y="-247.36" width="2302.99" height="54.3727" transform="rotate(45 -480.106 -247.36)" fill="#75D7EF"/>
<rect x="-403.212" y="-324.254" width="2302.99" height="54.3727" transform="rotate(45 -403.212 -324.254)" fill="#010101"/>
<rect x="-249.423" y="-478.044" width="2302.99" height="54.3727" transform="rotate(45 -249.423 -478.044)" fill="#E5FE04"/>
<rect x="-364.765" y="-362.702" width="2302.99" height="54.3727" transform="rotate(45 -364.765 -362.702)" fill="#76008A"/>
<rect x="-557.001" y="-170.465" width="2302.99" height="54.3727" transform="rotate(45 -557.001 -170.465)" fill="#FBF9F5"/>
<rect x="-441.659" y="-285.807" width="2302.99" height="54.3727" transform="rotate(45 -441.659 -285.807)" fill="#5D390D"/>
<rect x="-210.976" y="-516.491" width="2302.99" height="54.3727" transform="rotate(45 -210.976 -516.491)" fill="#EF9E01"/>
<rect x="-518.554" y="-208.913" width="2302.99" height="54.3727" transform="rotate(45 -518.554 -208.913)" fill="#FEAFC7"/>
<rect x="-287.87" y="-439.596" width="2302.99" height="54.3727" transform="rotate(45 -287.87 -439.596)" fill="#0ABF02"/>
</g>
</svg>
